!!!!SEGMENT: pl-sa--375-a-viii-15--002_anonim--ktolz-cie-wbill-jezu.krn
!!!cenid: 17xx:1446
!!!COM: Anonim
!!!COM-rismID: pe30004985
!!!CDT:
!!!CNT:
!!!OTL: Któż cię wbił Jezu
!!!PDT:
!!!AGN: Sacred
!!!SMS-siglum: PL-SA
!!!SMS-shelfmark: 375/A VIII 15
!!!SMS-shelfwork: 002 W
!!!SMS-variant:
!!!SMS-altvar:
!!!NIFC-rismSourceID: 1001071595
!!!NIFC-islandoraID:
!!!URL-pdf-islandora:
!!!URL-scan: https://bc.bdsandomierz.pl/dlibra/publication/1679/edition/1647/content @EN{Scan in the Sandomierz Diocese Digital Library} @PL{Skany w portalu Cyfrowa Biblioteka Diecezjalna w Sandomierzu}
!!!ONB-nifc: UWAGA: utwory w zbiorze: 1. Któż cię mój Jezu [do tak okrutnego krzyża…], 2. Któż cię wbił Jezu [na krzyż tak okrutnie…]
!!!AIN: 1 vox
!!!key: E-
**kern	**text	**text	**text	**text
*Ivox	*	*	*	*
*I"Canto	*	*	*	*
*I'S	*	*	*	*
*ICvox	*	*	*	*
*clefC1	*	*	*	*
*k[f#c#]	*	*	*	*
*E-:	*	*	*	*
*M3/4	*	*	*	*
=1	=1	=1	=1	=1
!LO:TX:a:t=2.	!	!	!	!
4b\	Koz	Mi-	W czym-	Więk
4ee\	cię	-losc	-ze	du-
4dd\	wbił	nay-	się	-szo
=2	=2	=2	=2	=2
*2\right	*	*	*	*
2ee\	Je-	-wię-	Je-	mo-
4b\	-zu	-cey	-zu	-ia
=3	=3	=3	=3	=3
4.cc#\	na	to-	za-	Gdy
8cc#\	krziz	-bi	-ko-	Bog
8cc#\L	tak	do-	-chał	we
8b\J	.	.	.	.
=4	=4	=4	=4	=4
!LO:TX:t=P:problem=mixed beam	!	!	!	!
8ee\L	o-	-ku-	tak	krwi
8e/J	.	.	.	.
2a#X\	-krot-	-czy-	chci-	pły-
=5	=5	=5	=5	=5
2.b\	-nie,	-ła,	-wie,	-wa,
=6	=6	=6	=6	=6
4.b\	Kto	ta-	Jest	nie-
!LO:TX:t=P:problem=niezrozumiały tekst (1 zwrotka)	!	!	!	!
8a\	wy	-cie	y	-chai
4g/	dza	Zmę-	wrze-	łza
=7	=7	=7	=7	=7
2f#/	fo	-czy-	-siu-	cie-
4f#/	wał	-ła	-ku	-szka
=8	=8	=8	=8	=8
4.f#/	krew	ta	Bo-	ser-
8f#/	two-	i	-le-	-ce
4g/	-ię	na	-ie	me
=9	=9	=9	=9	=9
8a\L	ro	krziz	rzew-	o-
8g\J	.	.	.	.
2f#/	zro	wbi-	-li-	-ble-
=10	=10	=10	=10	=10
2.e/	tnie	-ła	-wie	-wa
!LO:LB:g=original	!	!	!	!
=11:|!|:	=11:|!|:	=11:|!|:	=11:|!|:	=11:|!|:
2b\	Pe-	Mi-	Grze-	Sło-
4b\	-wnie	-losc	-snik	-nce
=12	=12	=12	=12	=12
4cc#\	Na-	ku	ty-	Za-
4cc#\	-rod	nąm	-ran	-ło-
4b\	nie-	wni-	Cha-	-bą
=13	=13	=13	=13	=13
2a\	-wdzię-	-wecz	-nie-	Za-
4a\	-czny	nam	-bny	-sło
=14	=14	=14	=14	=14
4.dd\	Za-	ſka-	a	Zie-
8ffn\	-ka-	-to-	tÿ	-mia
8ee\L	-mia-	-wa-	go	drzy
8dd\J	.	.	.	.
=15	=15	=15	=15	=15
8cc#\L	-li	-ła	mi-	przy
8b\J	Ży-	.	.	.
2a\	.	Pa-	-łu-	Sce-
=16	=16	=16	=16	=16
2.g/	-dzy,	-na	-iesz,	-nie,
=17	=17	=17	=17	=17
4dd\	Kto-	Su-	Je-	Za-
4.dd#X\	-rych	-ro-	-mus	-drzy
8dd#\	Sie	-wſze-	Zy-	i
=18	=18	=18	=18	=18
4.ee\	O-	-go	-wot	by-
8ff#\	-kru-	nad	Zgo-	-łes
8gg\	-cien-	Mi-	-to-	mąk
8ee\	-ſtwe(m)	-łosc	-wał	Stwor-
=19	=19	=19	=19	=19
4.dd#X\	ka-	Nie	Si-	-cÿ
8b\	-zdy	by-	-bie	przÿ-
4ee\	do-	-ło	Smier-	-czy-
=20	=20	=20	=20	=20
4ff#X\	-tąt	ty-	-cia	-ną
2dd#X\	brzy-	-ra-	tru-	wie-
=21	=21	=21	=21	=21
2.ee\	-dzÿ	-na	-iesz	-le
=:|!	=:|!	=:|!	=:|!	=:|!
*-	*-	*-	*-	*-
!!!system-decoration: [(s1)]
!!!ENC: Marcin Jachim
!!!END: 2020-12-03
!!!ENC: Julita Ruszuk
!!!END: 2022-02-22
